icons/glyphs/glyph-steam-alt.svg

<?xml version="1.0" encoding="UTF-8" standalone="no"?><svg height="22" viewBox="0 0 22 22" width="22" xmlns="http://www.w3.org/2000/svg"><sodipodi:namedview/><metadata><rdf:RDF><cc:Work><dc:format>image/svg+xml</dc:format><dc:type/><dc:title/></cc:Work></rdf:RDF></metadata><path d="m11 0a11 11 0 0 0 -10.8828125 9.4824219l6.1601563 2.6308591c.4276176-.271926.9250199-.446383 1.4667968-.470703.0450288-.002.0901237.000025.1347656 0l2.6503908-3.673828c.028486-2.0893931 1.666314-3.8235588 3.769531-3.9179688 2.182415-.0979653 4.032359 1.602535 4.13086 3.796875.098498 2.1943418-1.585162 4.0602428-3.767579 4.1582028-.059043.0027-.117261-.000045-.175781 0l-3.607422 2.71875c-.032848 1.576658-1.275584 2.875906-2.8652341 2.947266-1.4878995.066789-2.7694082-.965336-3.0703125-2.382813l-4.69140628-2.007812a11 11 0 0 0 10.74804688 8.71875 11 11 0 0 0 11-11 11 11 0 0 0 -11-11zm3.365234 5.3027344c-1.494199.0670725-2.651424 1.337479-2.583984 2.8398437.067437 1.5023649 1.331974 2.6647259 2.826172 2.5976559 1.494204-.067072 2.651424-1.3374781 2.583984-2.8398434-.067435-1.5023647-1.331972-2.6647282-2.826172-2.5976562zm.027344.7265625c1.095757-.0491873 2.02281.810362 2.072266 1.9121093.049455 1.1017481-.800727 2.0367515-1.896485 2.0859378-1.095755.049186-2.024768-.8103616-2.074218-1.9121096-.049456-1.1017478.80268-2.0367505 1.898437-2.0859375zm-6.6210936 6.2324221c-.26719.011994-.518449.067266-.7539063.160156l1.5058594.646484a1.7229269 1.7229269 0 1 1 -1.359375 3.164063l-1.4667969-.619141c.379406.885514 1.2743774 1.484993 2.2890625 1.439453 1.3130926-.058943 2.3327079-1.183639 2.2734379-2.503906-.059264-1.320267-1.1751893-2.346059-2.4882816-2.287109z" fill="#fff" stroke-width="2.363295"/></svg>

<?xml version="1.0" encoding="UTF-8" standalone="no"?>
<!-- Created with Inkscape (http://www.inkscape.org/) -->

<svg
   xmlns:dc="http://purl.org/dc/elements/1.1/"
   xmlns:cc="http://creativecommons.org/ns#"
   xmlns:rdf="http://www.w3.org/1999/02/22-rdf-syntax-ns#"
   xmlns:svg="http://www.w3.org/2000/svg"
   xmlns="http://www.w3.org/2000/svg"
   xmlns:sodipodi="http://sodipodi.sourceforge.net/DTD/sodipodi-0.dtd"
   xmlns:inkscape="http://www.inkscape.org/namespaces/inkscape"
   width="22"
   height="22"
   viewBox="0 0 22 22"
   version="1.1"
   id="svg8"
   inkscape:version="0.92+devel 15640 custom"
   sodipodi:docname="glyph-steam-alt.svg">
  <defs
     id="defs2" />
  <sodipodi:namedview
     id="base"
     pagecolor="#002266"
     bordercolor="#ffffff"
     borderopacity="0.46666667"
     inkscape:pageopacity="0"
     inkscape:pageshadow="2"
     inkscape:zoom="13.081476"
     inkscape:cx="16.201469"
     inkscape:cy="12.794693"
     inkscape:document-units="px"
     inkscape:current-layer="svg8"
     inkscape:document-rotation="0"
     showgrid="false"
     inkscape:showpageshadow="false"
     borderlayer="true"
     units="px"
     fit-margin-top="0"
     fit-margin-left="0"
     fit-margin-right="0"
     fit-margin-bottom="0"
     inkscape:window-width="1920"
     inkscape:window-height="1051"
     inkscape:window-x="0"
     inkscape:window-y="0"
     inkscape:window-maximized="1" />
  <metadata
     id="metadata5">
    <rdf:RDF>
      <cc:Work
         rdf:about="">
        <dc:format>image/svg+xml</dc:format>
        <dc:type
           rdf:resource="http://purl.org/dc/dcmitype/StillImage" />
        <dc:title></dc:title>
      </cc:Work>
    </rdf:RDF>
  </metadata>
  <path
     style="fill:#ffffff;stroke-width:2.36329532"
     d="M 11 0 A 11 11 0 0 0 0.1171875 9.4824219 L 6.2773438 12.113281 C 6.7049614 11.841355 7.2023637 11.666898 7.7441406 11.642578 C 7.7891694 11.640578 7.8342643 11.642603 7.8789062 11.642578 L 10.529297 7.96875 C 10.557783 5.8793569 12.195611 4.1451912 14.298828 4.0507812 C 16.481243 3.9528159 18.331187 5.6533162 18.429688 7.8476562 C 18.528186 10.041998 16.844526 11.907899 14.662109 12.005859 C 14.603066 12.008559 14.544848 12.005814 14.486328 12.005859 L 10.878906 14.724609 C 10.846058 16.301267 9.603322 17.600515 8.0136719 17.671875 C 6.5257724 17.738664 5.2442637 16.706539 4.9433594 15.289062 L 0.25195312 13.28125 A 11 11 0 0 0 11 22 A 11 11 0 0 0 22 11 A 11 11 0 0 0 11 0 z M 14.365234 5.3027344 C 12.871035 5.3698069 11.71381 6.6402134 11.78125 8.1425781 C 11.848687 9.644943 13.113224 10.807304 14.607422 10.740234 C 16.101626 10.673162 17.258846 9.4027559 17.191406 7.9003906 C 17.123971 6.3980259 15.859434 5.2356624 14.365234 5.3027344 z M 14.392578 6.0292969 C 15.488335 5.9801096 16.415388 6.8396589 16.464844 7.9414062 C 16.514299 9.0431543 15.664117 9.9781577 14.568359 10.027344 C 13.472604 10.07653 12.543591 9.2169824 12.494141 8.1152344 C 12.444685 7.0134866 13.296821 6.0784839 14.392578 6.0292969 z M 7.7714844 12.261719 C 7.5042944 12.273713 7.2530354 12.328985 7.0175781 12.421875 L 8.5234375 13.068359 A 1.7229269 1.7229269 0 1 1 7.1640625 16.232422 L 5.6972656 15.613281 C 6.0766716 16.498795 6.971643 17.098274 7.9863281 17.052734 C 9.2994207 16.993791 10.319036 15.869095 10.259766 14.548828 C 10.200502 13.228561 9.0845767 12.202769 7.7714844 12.261719 z "
     id="path4262"
     inkscape:label="glyph" />
</svg>
